core/img/actions/verifying.svg

<svg width="16" height="16" version="1.1" viewbox="0 0 16 16" xmlns="http://www.w3.org/2000/svg"><path d="m8 0a3 3 0 0 0-2.828 2 3 3 0 0 0-0.172-0 3 3 0 0 0-3 3 3 3 0 0 0 0 0.172 3 3 0 0 0-2 2.828 3 3 0 0 0 2 2.828 3 3 0 0 0-0 0.172 3 3 0 0 0 3 3 3 3 0 0 0 0.172-0 3 3 0 0 0 2.828 2 3 3 0 0 0 2.828-2.01 3 3 0 0 0 0.172 0.01 3 3 0 0 0 3-3 3 3 0 0 0-0-0.172 3 3 0 0 0 2-2.828 3 3 0 0 0-2.01-2.828 3 3 0 0 0 0.01-0.172 3 3 0 0 0-3-3 3 3 0 0 0-0.172 0 3 3 0 0 0-2.828-2zm-0.0352 3.4922c0.58455-0.00435 1.1821 0.096216 1.7559 0.33398 0.69638 0.28822 1.2735 0.7423 1.7246 1.2832l1.055-1.0547v3.375h-3.375l1.125-1.125c-0.2925-0.3924-0.6924-0.7131-1.1777-0.9141-1.4351-0.5944-3.0794 0.0942-3.6739 1.5293l-1.5644-0.6504c0.7133-1.7221 2.3772-2.7643 4.1308-2.7773zm-4.4648 5.3437h3.375l-0.98438 0.98438c0.2773 0.3207 0.6189 0.5997 1.0371 0.7737 1.4351 0.594 3.0793-0.095 3.6743-1.5295l1.5625 0.65039c-0.951 2.2961-3.5905 3.3941-5.8867 2.4431-0.6318-0.261-1.1678-0.651-1.5996-1.125l-1.1777 1.178v-3.3751z" fill="#0082c9"/></svg>

<svg xmlns="http://www.w3.org/2000/svg" width="16" height="16"><path fill="#0082c9" d="M8 0a3 3 0 0 0-2.828 2A3 3 0 0 0 5 2a3 3 0 0 0-3 3 3 3 0 0 0 0 .172A3 3 0 0 0 0 8a3 3 0 0 0 2 2.828A3 3 0 0 0 2 11a3 3 0 0 0 3 3 3 3 0 0 0 .172 0A3 3 0 0 0 8 16a3 3 0 0 0 2.828-2.01A3 3 0 0 0 11 14a3 3 0 0 0 3-3 3 3 0 0 0 0-.172A3 3 0 0 0 16 8a3 3 0 0 0-2.01-2.828A3 3 0 0 0 14 5a3 3 0 0 0-3-3 3 3 0 0 0-.172 0A3 3 0 0 0 8 0zm-.035 3.492a4.484 4.484 0 0 1 1.756.334 4.476 4.476 0 0 1 1.724 1.283L12.5 4.055V7.43H9.125l1.125-1.125a2.815 2.815 0 0 0-4.852.615l-1.564-.65a4.506 4.506 0 0 1 4.131-2.778zM3.5 8.836h3.375l-.984.984c.277.321.619.6 1.037.774a2.816 2.816 0 0 0 3.674-1.53l1.563.65a4.512 4.512 0 0 1-5.887 2.444 4.46 4.46 0 0 1-1.6-1.125l-1.177 1.178V8.836z"/></svg>
